X: 105
T:Micho Russell's Reel
M:4/4
N:Paul McGrattan's workshop 9/11/99
H:Within A Mile of Dublin
O:Irish
R:Reel
Z:Thomas Keays
K:D
P:A
Addc A2AB | cBcd eddc | Addc A2AB | cAGE EDD2 :|
P:B
d2fd Adfd | (3B/c/d/ef g2fe | d2fd Adfd | eaag edd2 |
d2fd Adfd | (3B/c/d/ef g2fg | afge d2cd | eaag edd2 |]
<end>
<start>
